X:1
T: The House of Glenkindy
C:Alexander Walker
R:Strathspey
Q: 128
K:G
M:4/4
L:1/16
|:D2|GG3 B3G EA3 F3D|GG3 B3G d3G A3G|c3e B3g E3A FD3|C3E ((3D2E2F2) ((3G2D2C2) ((3B,2A,2G,2) |
GG3 B3G EA3 F3D|GG3 B3G d3G A3G|c3e B3d Aa3 a3b|dg3 b3a g6e2|
dG3 d3A dG3 ce3|dG3 B3G e3A c3e|dG3 d3B dG3 d3B|dg3 b3a g4-g3e|
dG3 d3B d3G c3e|d3G d3B eA3 A3c|B3d c3e ca3 e3c|B3G FGAF GG,3 G,2:|
